public/logo-onlight 1-C8yTmhJR.svg

<svg width="115" height="44" viewBox="0 0 115 44" fill="none" xmlns="http://www.w3.org/2000/svg">
<g clip-path="url(#clip0_9_79924)">
<mask id="mask0_9_79924" style="mask-type:luminance" maskUnits="userSpaceOnUse" x="0" y="0" width="115" height="44">
<path d="M0 0.5H115V43.5H0V0.5Z" fill="white"/>
</mask>
<g mask="url(#mask0_9_79924)">
<path d="M1.74152 35.283L15.5695 43.088C15.6605 43.141 15.7565 43.186 15.8555 43.223C16.3155 43.409 16.8075 43.503 17.3055 43.499C17.9095 43.509 18.5065 43.369 19.0405 43.089L32.8635 35.283C33.1005 35.196 33.3035 35.04 33.4475 34.836C33.5905 34.6337 33.6672 34.3922 33.6672 34.1445C33.6672 33.8968 33.5905 33.6552 33.4475 33.453C33.3025 33.2484 33.0989 33.0926 32.8635 33.006L22.1495 26.956C21.9188 26.8281 21.6594 26.7606 21.3955 26.76C21.0427 26.7578 20.7002 26.8783 20.4265 27.101C20.1563 27.3209 19.9737 27.6302 19.9115 27.973L17.5835 40.673V11.495C17.5636 10.9029 17.3903 10.326 17.0805 9.82099C16.7857 9.30156 16.3612 8.86744 15.8485 8.56099L2.02052 0.748989C1.81693 0.607613 1.57932 0.523078 1.33219 0.504095C1.08505 0.485111 0.83732 0.532366 0.614524 0.640989C0.40899 0.775256 0.243504 0.962508 0.135524 1.18299C0.0282985 1.40196 -0.0166731 1.64619 0.00552394 1.88899V32.341C0.0249542 32.935 0.199764 33.5136 0.512524 34.019C0.807403 34.5382 1.23056 34.9731 1.74152 35.282V35.283Z" fill="#1062FE"/>
<path d="M51.834 28.6421C51.693 28.6735 51.55 28.6952 51.406 28.7071C51.067 28.7471 50.724 28.7371 50.389 28.6771C50.2728 28.6534 50.1662 28.5956 50.083 28.5111C49.9685 28.3835 49.885 28.2312 49.839 28.0661C49.7572 27.7502 49.7215 27.4242 49.733 27.0981V12.8931C49.7344 12.8018 49.7028 12.713 49.644 12.6431C49.5844 12.5726 49.5019 12.5252 49.411 12.5091C49.1923 12.4734 48.972 12.4477 48.751 12.4321C48.3227 12.3976 47.8923 12.3976 47.464 12.4321C47.224 12.4321 47.001 12.4741 46.808 12.5091C46.7174 12.5254 46.6354 12.5728 46.576 12.6431C46.5168 12.7128 46.4848 12.8016 46.486 12.8931V27.6361C46.47 28.2461 46.573 28.8531 46.789 29.4251C46.972 29.8911 47.269 30.3051 47.657 30.6301C48.02 30.9321 48.448 31.1511 48.909 31.2721C49.385 31.4001 49.876 31.4641 50.369 31.4601C50.664 31.4601 50.986 31.4601 51.328 31.4211C51.653 31.4021 51.976 31.3411 52.285 31.2411C52.3612 31.2151 52.4276 31.1662 52.475 31.1011C52.5223 31.0371 52.5482 30.9597 52.549 30.8801C52.5528 30.2172 52.4721 29.5566 52.309 28.9141C52.2818 28.8164 52.2171 28.7334 52.129 28.6831C52.0396 28.632 51.9339 28.6173 51.834 28.6421ZM59.294 17.6221C58.61 17.6241 57.928 17.6751 57.252 17.7761C56.587 17.8661 55.93 18.0101 55.289 18.2061C55.2068 18.231 55.1351 18.2823 55.085 18.3521C55.0355 18.4213 55.0109 18.5051 55.015 18.5901C54.997 19.3351 55.18 20.0701 55.545 20.7251C55.5904 20.8009 55.6602 20.8591 55.743 20.8901C55.8265 20.9213 55.918 20.9237 56.003 20.8971C56.479 20.7541 56.963 20.6391 57.453 20.5521C57.9717 20.4649 58.497 20.4224 59.023 20.4251C59.713 20.3751 60.403 20.5451 60.986 20.9091C61.379 21.2091 61.586 21.7841 61.586 22.6211V22.6561L61.139 22.6181C60.6909 22.5904 60.242 22.5773 59.793 22.5791C59.0629 22.5769 58.3356 22.6687 57.629 22.8521C56.9646 23.023 56.3351 23.3086 55.769 23.6961C55.223 24.0781 54.776 24.5761 54.461 25.1561C54.1276 25.7814 53.9599 26.4816 53.974 27.1901C53.9546 27.884 54.097 28.5728 54.39 29.2021C54.6597 29.7578 55.0648 30.2368 55.568 30.5951C56.1197 30.9696 56.7404 31.2307 57.394 31.3631C58.154 31.5241 58.929 31.6011 59.706 31.5931C60.586 31.5937 61.4646 31.5221 62.333 31.3791C63.169 31.2401 63.903 31.1021 64.493 30.9681C64.5807 30.9484 64.659 30.8994 64.715 30.8291C64.7705 30.7597 64.7999 30.673 64.798 30.5841V22.6981C64.798 20.9551 64.311 19.6541 63.358 18.8361C62.403 18.0181 61.068 17.6221 59.294 17.6221ZM61.591 25.3241V28.6841C61.3456 28.7319 61.0979 28.7676 60.849 28.7911C60.161 28.8621 59.467 28.8621 58.779 28.7911C58.505 28.7683 58.2382 28.6915 57.994 28.5651C57.7695 28.4452 57.58 28.2692 57.444 28.0541C57.2836 27.765 57.209 27.4361 57.229 27.1061C57.2071 26.8367 57.2553 26.5663 57.369 26.3211C57.484 26.0751 57.659 25.8611 57.881 25.7011C58.5326 25.329 59.2792 25.1565 60.028 25.2051C60.283 25.2051 60.601 25.2051 60.974 25.2551L61.591 25.3241ZM79.902 17.8451C79.2246 17.839 78.55 17.9309 77.899 18.1181C77.463 18.2441 77.045 18.4281 76.659 18.6631C76.2109 18.3713 75.7282 18.1365 75.222 17.9641C74.5172 17.7289 73.7779 17.6136 73.035 17.6231C72.2336 17.6175 71.4371 17.7474 70.679 18.0071C70.0237 18.2256 69.4192 18.5742 68.902 19.0321C68.4256 19.4579 68.0467 19.9815 67.791 20.5671C67.5301 21.164 67.3963 21.8087 67.398 22.4601C67.3863 23.2327 67.5758 23.995 67.948 24.6721C68.218 25.1581 68.574 25.5941 69 25.9581C68.68 26.2431 68.4 26.5691 68.172 26.9291C67.8497 27.4637 67.6864 28.079 67.701 28.7031C67.681 29.2011 67.817 29.6931 68.093 30.1121C68.233 30.3111 68.395 30.4941 68.576 30.6571C68.156 30.9551 67.791 31.3231 67.5 31.7431C67.0888 32.3358 66.8721 33.0418 66.88 33.7631C66.8461 34.331 66.9748 34.8968 67.251 35.3941C67.528 35.8941 67.942 36.3071 68.446 36.5891C69.408 37.1451 70.802 37.4291 72.592 37.4291C73.55 37.4361 74.504 37.3291 75.435 37.1111C76.2511 36.9233 77.0326 36.6084 77.751 36.1781C78.3748 35.7924 78.9091 35.2779 79.318 34.6691C79.7097 34.0703 79.9147 33.3686 79.907 32.6531C79.9307 32.1465 79.8415 31.641 79.646 31.1731C79.4488 30.7014 79.1504 30.2788 78.772 29.9351C78.022 29.2791 76.88 28.9411 75.278 28.9061L71.937 28.8561C71.037 28.8561 70.806 28.6681 70.759 28.6181C70.6906 28.5528 70.6362 28.4743 70.599 28.3873C70.5619 28.3003 70.5428 28.2067 70.543 28.1121C70.5475 27.8774 70.6367 27.6523 70.794 27.4781C70.925 27.3161 71.077 27.1721 71.246 27.0481C71.834 27.1801 72.436 27.2451 73.04 27.2401C73.7878 27.2464 74.532 27.1365 75.246 26.9141C75.895 26.7129 76.4991 26.3883 77.025 25.9581C77.529 25.5381 77.931 25.0131 78.203 24.4221C78.4774 23.7999 78.6112 23.1249 78.595 22.4451C78.601 22.026 78.5458 21.6082 78.431 21.2051C78.3851 21.0649 78.3341 20.9265 78.278 20.7901H79.888C79.981 20.7916 80.0716 20.7604 80.144 20.7021C80.2155 20.6442 80.2637 20.5626 80.28 20.4721C80.3139 20.2655 80.3399 20.0577 80.358 19.8491C80.3768 19.65 80.3861 19.4501 80.386 19.2501C80.3875 18.8773 80.3507 18.5053 80.276 18.1401C80.2558 18.057 80.2082 17.983 80.141 17.9301C80.073 17.8767 79.9884 17.8468 79.902 17.8451ZM71.881 31.5981L74.743 31.6481C75.685 31.6481 76.086 31.8361 76.258 31.9741C76.3739 32.079 76.4645 32.2088 76.523 32.3538C76.5816 32.4988 76.6065 32.6551 76.596 32.8111C76.596 33.3251 76.286 33.7511 75.658 34.1161C74.7441 34.5601 73.7326 34.7648 72.718 34.7111C72.3236 34.7134 71.9295 34.6867 71.539 34.6311C71.2405 34.591 70.9502 34.504 70.679 34.3731C70.4811 34.2803 70.3118 34.1359 70.189 33.9551C70.0688 33.7508 70.0114 33.5157 70.024 33.2791C70.0129 32.8277 70.1807 32.3902 70.491 32.0621C70.6641 31.8973 70.8699 31.7708 71.0951 31.6907C71.3202 31.6106 71.5597 31.5787 71.798 31.5971H71.881V31.5981ZM71.347 20.7711C71.697 20.3601 72.254 20.1611 73.043 20.1611C73.356 20.131 73.6717 20.1704 73.9677 20.2766C74.2636 20.3827 74.5325 20.553 74.755 20.7751C75.145 21.2481 75.343 21.8451 75.312 22.4521C75.3425 23.051 75.1433 23.6391 74.755 24.0961C74.393 24.5031 73.82 24.6861 73.035 24.6861C72.25 24.6861 71.688 24.4911 71.335 24.0841C70.9535 23.6242 70.7587 23.0378 70.789 22.4411C70.763 21.8347 70.9617 21.24 71.347 20.7711ZM92.454 19.6951C91.9034 19.0402 91.2141 18.5158 90.436 18.1601C88.6353 17.419 86.6147 17.419 84.814 18.1601C84.0398 18.5172 83.3544 19.0414 82.807 19.6951C82.265 20.3483 81.8639 21.1065 81.629 21.9221C81.1211 23.6948 81.1211 25.5744 81.629 27.3471C81.863 28.1601 82.264 28.9171 82.807 29.5741C83.3587 30.2078 84.0442 30.7113 84.814 31.0481C86.6126 31.7647 88.6174 31.7647 90.416 31.0481C91.1942 30.7077 91.8864 30.1976 92.442 29.5551C92.9855 28.9029 93.3867 28.1444 93.62 27.3281C94.1278 25.5554 94.1278 23.6758 93.62 21.9031C93.3895 21.0939 92.9923 20.3418 92.454 19.6951ZM87.632 28.9101C87.2003 28.9433 86.7674 28.8633 86.376 28.6781C85.987 28.4952 85.6537 28.2122 85.41 27.8581C84.912 27.0901 84.656 26.0261 84.656 24.6521C84.656 23.2781 84.912 22.2021 85.41 21.4581C85.909 20.7131 86.588 20.4131 87.632 20.4131C88.066 20.3801 88.502 20.4601 88.893 20.6441C89.286 20.8281 89.621 21.1101 89.867 21.4611C90.373 22.2031 90.632 23.2781 90.632 24.6511C90.632 26.0261 90.373 27.1011 89.867 27.8541C89.6174 28.2031 89.2805 28.4803 88.89 28.6581C88.4964 28.8376 88.063 28.9124 87.632 28.8751V28.9101ZM113.906 18.9931C113.152 18.0831 111.943 17.6231 110.345 17.6231C109.431 17.6026 108.534 17.871 107.781 18.3901C107.453 18.6201 107.155 18.8881 106.894 19.1891C106.804 19.2931 106.717 19.3961 106.639 19.4961C106.371 19.0218 106.008 18.6086 105.571 18.2831C104.81 17.7909 103.912 17.5528 103.007 17.6031C102.514 17.5988 102.024 17.6713 101.554 17.8181C101.136 17.949 100.74 18.1404 100.377 18.3861C100.065 18.5964 99.783 18.8469 99.537 19.1311C99.4996 18.8211 99.4509 18.5125 99.391 18.2061C99.3755 18.1301 99.3371 18.0606 99.281 18.0071C99.2247 17.9531 99.1537 17.9169 99.077 17.9031C98.881 17.8681 98.685 17.8451 98.531 17.8261C98.1538 17.7915 97.7742 17.7915 97.397 17.8261C97.212 17.8261 97.004 17.8681 96.824 17.9031C96.7327 17.9189 96.6498 17.9663 96.59 18.0371C96.5314 18.1071 96.5002 18.1959 96.502 18.2871V30.9071C96.5006 30.9979 96.5318 31.0863 96.59 31.1561C96.65 31.2261 96.732 31.2741 96.824 31.2901C97.046 31.3301 97.27 31.3561 97.494 31.3701C98.1482 31.4222 98.8062 31.3954 99.454 31.2901C99.5449 31.274 99.6274 31.2266 99.687 31.1561C99.7459 31.0863 99.7775 30.9974 99.776 30.9061V24.4681C99.7666 23.8606 99.8419 23.2548 100 22.6681C100.118 22.2231 100.317 21.8051 100.589 21.4311C100.806 21.1391 101.09 20.9001 101.417 20.7321C101.731 20.5813 102.074 20.5028 102.422 20.5021C102.674 20.4801 102.927 20.5281 103.152 20.6411C103.378 20.7531 103.565 20.9261 103.694 21.1391C104.04 21.8471 104.194 22.6291 104.142 23.4121V30.9061C104.14 30.9971 104.172 31.0861 104.231 31.1561C104.29 31.2261 104.372 31.2741 104.464 31.2901C105.326 31.4308 106.205 31.4308 107.067 31.2901C107.158 31.274 107.24 31.2266 107.3 31.1561C107.359 31.0861 107.39 30.9974 107.389 30.9061V23.7821C107.389 22.7021 107.624 21.8851 108.088 21.3521C108.307 21.099 108.58 20.8985 108.887 20.7653C109.194 20.6322 109.528 20.5699 109.862 20.5831C110.134 20.5546 110.409 20.6002 110.658 20.7151C110.906 20.8291 111.117 21.0081 111.268 21.2321C111.629 21.9589 111.792 22.7682 111.739 23.5781V30.9081C111.737 30.9981 111.769 31.0871 111.828 31.1571C111.887 31.2271 111.969 31.2751 112.061 31.2911C112.278 31.3311 112.497 31.3571 112.716 31.3711C112.952 31.3711 113.168 31.3991 113.36 31.3991C113.553 31.3991 113.773 31.3991 114.016 31.3721C114.241 31.3591 114.466 31.3321 114.687 31.2921C114.778 31.2759 114.861 31.2281 114.92 31.1571C114.979 31.0874 115.011 30.9985 115.009 30.9071V22.8721C115.009 21.1861 114.652 19.8811 113.906 18.9941V18.9931Z" fill="#0C0D0F"/>
</g>
</g>
<defs>
<clipPath id="clip0_9_79924">
<rect width="115" height="44" fill="white"/>
</clipPath>
</defs>
</svg>

<svg xmlns="http://www.w3.org/2000/svg" width="115" height="44" fill="none" viewBox="0 0 115 44"><g clip-path="url(#a)"><mask id="b" width="115" height="44" x="0" y="0" maskUnits="userSpaceOnUse" style="mask-type:luminance"><path fill="#fff" d="M0 .5h115v43H0z"/></mask><g mask="url(#b)"><path fill="#1062fe" d="m1.742 35.283 13.828 7.805q.136.08.285.135c.46.186.953.28 1.45.276.605.01 1.201-.13 1.736-.41l13.823-7.806c.236-.087.44-.243.584-.447a1.2 1.2 0 0 0 0-1.383 1.24 1.24 0 0 0-.584-.447l-10.714-6.05a1.56 1.56 0 0 0-.755-.196 1.52 1.52 0 0 0-.968.341c-.27.22-.453.53-.515.872l-2.328 12.7V11.495a3.4 3.4 0 0 0-.503-1.674 3.45 3.45 0 0 0-1.232-1.26L2.02.749A1.4 1.4 0 0 0 .615.641a1.36 1.36 0 0 0-.48.542 1.33 1.33 0 0 0-.13.706v30.452a3.4 3.4 0 0 0 .508 1.678c.294.52.718.954 1.229 1.263z"/><path fill="#0c0d0f" d="M51.834 28.642a3 3 0 0 1-.428.065c-.339.04-.682.03-1.017-.03a.6.6 0 0 1-.306-.166 1.1 1.1 0 0 1-.244-.445 3.4 3.4 0 0 1-.106-.968V12.893a.38.38 0 0 0-.089-.25.4.4 0 0 0-.233-.134 7 7 0 0 0-.66-.077 8 8 0 0 0-1.287 0c-.24 0-.463.042-.656.077a.4.4 0 0 0-.232.134.38.38 0 0 0-.09.25v14.743c-.016.61.087 1.217.303 1.79.183.465.48.88.868 1.204.363.302.791.521 1.252.642.476.128.967.192 1.46.188.295 0 .617 0 .959-.039.325-.019.648-.08.957-.18a.39.39 0 0 0 .264-.36 7.8 7.8 0 0 0-.24-1.967.39.39 0 0 0-.18-.23.4.4 0 0 0-.295-.042m7.46-11.02q-1.027.003-2.042.154c-.665.09-1.322.234-1.963.43a.4.4 0 0 0-.204.146.38.38 0 0 0-.07.238c-.018.745.165 1.48.53 2.135a.4.4 0 0 0 .198.165.4.4 0 0 0 .26.007q.715-.214 1.45-.345a9 9 0 0 1 1.57-.127c.69-.05 1.38.12 1.963.484.393.3.6.875.6 1.712v.035l-.447-.038q-.672-.041-1.346-.039a8.5 8.5 0 0 0-2.164.273 5.9 5.9 0 0 0-1.86.844c-.546.382-.993.88-1.308 1.46a4.15 4.15 0 0 0-.487 2.034 4.5 4.5 0 0 0 .416 2.012c.27.556.675 1.035 1.178 1.393a5 5 0 0 0 1.826.768c.76.161 1.535.238 2.312.23a16 16 0 0 0 2.627-.214c.836-.139 1.57-.277 2.16-.41a.4.4 0 0 0 .222-.14.38.38 0 0 0 .083-.245v-7.886c0-1.743-.487-3.044-1.44-3.862-.955-.818-2.29-1.214-4.064-1.214m2.297 7.702v3.36a10.085 10.085 0 0 1-2.812.107c-.274-.023-.54-.1-.785-.226a1.47 1.47 0 0 1-.55-.51 1.74 1.74 0 0 1-.215-.949c-.022-.27.026-.54.14-.785.115-.246.29-.46.512-.62a3.83 3.83 0 0 1 2.147-.496c.255 0 .573 0 .946.05zm18.311-7.479a7 7 0 0 0-2.003.273c-.436.126-.854.31-1.24.545a6.4 6.4 0 0 0-1.437-.699 6.6 6.6 0 0 0-2.187-.34 7.1 7.1 0 0 0-2.356.383 5.1 5.1 0 0 0-1.777 1.025c-.476.426-.855.95-1.111 1.535a4.7 4.7 0 0 0-.393 1.893 4.45 4.45 0 0 0 .55 2.212c.27.486.626.922 1.052 1.286-.32.285-.6.611-.828.971a3.3 3.3 0 0 0-.471 1.774c-.02.498.116.99.392 1.41q.21.298.483.544c-.42.298-.785.666-1.076 1.086a3.48 3.48 0 0 0-.62 2.02 3 3 0 0 0 .371 1.631c.277.5.691.913 1.195 1.195.962.556 2.356.84 4.146.84.958.007 1.912-.1 2.843-.318a8 8 0 0 0 2.316-.933 5.15 5.15 0 0 0 1.567-1.509c.392-.599.597-1.3.589-2.016a3.4 3.4 0 0 0-.261-1.48 3.5 3.5 0 0 0-.874-1.238c-.75-.656-1.892-.994-3.494-1.029l-3.341-.05c-.9 0-1.131-.188-1.178-.238a.7.7 0 0 1-.216-.506.97.97 0 0 1 .251-.634q.198-.244.452-.43c.588.132 1.19.197 1.794.192a7.2 7.2 0 0 0 2.206-.326 5.3 5.3 0 0 0 1.779-.956c.504-.42.906-.945 1.178-1.536a4.6 4.6 0 0 0 .392-1.977c.006-.419-.05-.837-.164-1.24a6 6 0 0 0-.153-.415h1.61a.4.4 0 0 0 .256-.088.38.38 0 0 0 .136-.23 8 8 0 0 0 .106-1.222 5.4 5.4 0 0 0-.11-1.11.4.4 0 0 0-.135-.21.4.4 0 0 0-.239-.085m-8.021 13.753 2.862.05c.942 0 1.343.188 1.515.326a1.03 1.03 0 0 1 .338.837c0 .514-.31.94-.938 1.305a6 6 0 0 1-2.94.595 8 8 0 0 1-1.179-.08 2.9 2.9 0 0 1-.86-.258 1.2 1.2 0 0 1-.49-.418 1.2 1.2 0 0 1-.165-.676 1.7 1.7 0 0 1 .467-1.217 1.7 1.7 0 0 1 1.307-.465zm-.534-10.827c.35-.41.907-.61 1.696-.61a2.13 2.13 0 0 1 1.712.614c.39.473.588 1.07.557 1.677a2.35 2.35 0 0 1-.557 1.644c-.362.407-.935.59-1.72.59s-1.347-.195-1.7-.602a2.38 2.38 0 0 1-.546-1.643 2.46 2.46 0 0 1 .558-1.67m21.107-1.076a5.8 5.8 0 0 0-2.018-1.535 7.39 7.39 0 0 0-5.622 0 5.8 5.8 0 0 0-2.007 1.535 6.2 6.2 0 0 0-1.178 2.227 9.85 9.85 0 0 0 0 5.425c.234.813.635 1.57 1.178 2.227a5.7 5.7 0 0 0 2.007 1.474 7.57 7.57 0 0 0 5.602 0c.778-.34 1.47-.85 2.026-1.493a6.1 6.1 0 0 0 1.178-2.227 9.85 9.85 0 0 0 0-5.425 6 6 0 0 0-1.166-2.208m-4.822 9.215a2.5 2.5 0 0 1-1.256-.232 2.4 2.4 0 0 1-.966-.82c-.498-.768-.754-1.832-.754-3.206s.256-2.45.754-3.194c.499-.745 1.178-1.045 2.222-1.045.434-.033.87.047 1.261.231.393.184.728.466.974.817.506.742.765 1.817.765 3.19 0 1.375-.259 2.45-.765 3.203-.25.35-.587.626-.977.804a2.5 2.5 0 0 1-1.258.217zm26.274-9.917c-.754-.91-1.963-1.37-3.561-1.37a4.35 4.35 0 0 0-2.564.767q-.494.346-.887.8-.136.155-.255.306a3.9 3.9 0 0 0-1.068-1.213 4.3 4.3 0 0 0-2.564-.68 4.7 4.7 0 0 0-1.453.215c-.418.131-.814.322-1.177.568a4.3 4.3 0 0 0-.84.745q-.056-.466-.146-.925a.4.4 0 0 0-.11-.199.4.4 0 0 0-.204-.104c-.196-.035-.392-.058-.546-.077a6 6 0 0 0-1.134 0c-.185 0-.393.042-.573.077a.4.4 0 0 0-.234.134.38.38 0 0 0-.088.25v12.62a.38.38 0 0 0 .322.383q.334.06.67.08a8.2 8.2 0 0 0 1.96-.08.4.4 0 0 0 .233-.134.38.38 0 0 0 .089-.25v-6.438a6.5 6.5 0 0 1 .224-1.8c.118-.445.317-.863.589-1.237.217-.292.501-.53.828-.699.314-.15.657-.23 1.005-.23.252-.022.505.026.73.14.226.111.413.284.542.497.346.708.5 1.49.448 2.273v7.494c-.002.091.03.18.089.25s.141.118.233.134c.862.14 1.741.14 2.603 0a.4.4 0 0 0 .233-.134.38.38 0 0 0 .089-.25v-7.124c0-1.08.235-1.897.699-2.43a2.23 2.23 0 0 1 1.774-.769c.272-.028.547.017.796.132.248.114.459.293.61.517.361.727.524 1.536.471 2.346v7.33c-.002.09.03.18.089.25s.141.117.233.133q.326.06.655.08c.236 0 .452.028.644.028.193 0 .413 0 .656-.027q.338-.02.671-.08a.4.4 0 0 0 .233-.135.38.38 0 0 0 .089-.25v-8.035c0-1.686-.357-2.99-1.103-3.878"/></g></g><defs><clipPath id="a"><path fill="#fff" d="M0 0h115v44H0z"/></clipPath></defs></svg>
